X:255
T:Tracks In The Sno
R:jig
C:Bruce Osborne - Jan, 2005
Z:abc by bosborne@kos.net
M:6/8
L:1/8
K:Gmaj
GA|BdB GBG|DED B,A,G,|DED B,CD|C4 GE|\
FAF DFA|d^cd fed|d^cd fed|B4 GA|\
BdB GBG|DED B,A,G,|DED B,CD|E4 GE|\
FAF DFA|d^cd fed|ded cBA|G4||\
Bc|dBB gBB|gba gdB|d^cd B=cd|c4 eg|\
fag fed|fef fed|d^cd AB=c|B4 Bc|\
dBB gBB|gba gdB|d^cd B=cd|e4 eg|\
fag fed|fef fed|ded cBA|G4||
